img/footer-mail.svg

<svg width="20" height="20" viewBox="0 0 20 20" fill="none" xmlns="http://www.w3.org/2000/svg">
<path d="M18.75 3.33301H1.25C0.56082 3.33301 0 3.89383 0 4.58301V15.4163C0 16.1055 0.56082 16.6663 1.25 16.6663H18.75C19.4392 16.6663 20 16.1055 20 15.4163V4.58301C20 3.89387 19.4392 3.33301 18.75 3.33301ZM19.1667 15.4164C19.1667 15.6464 18.98 15.833 18.75 15.833H1.25C1.02 15.833 0.83332 15.6464 0.83332 15.4164V4.58301C0.83332 4.35301 1.02 4.16633 1.25 4.16633H18.75C18.98 4.16633 19.1667 4.35301 19.1667 4.58301V15.4164Z" fill="#101315"/>
<path d="M19.7115 3.78584C19.5765 3.59916 19.3149 3.55752 19.1299 3.69252L10.7357 9.76086C10.2957 10.08 9.70489 10.0809 9.26403 9.76004L0.873213 3.69252C0.686533 3.55752 0.425713 3.5992 0.291533 3.78584C0.157354 3.97252 0.199033 4.23335 0.384853 4.36835L8.77485 10.435C9.14153 10.7017 9.57067 10.835 10.0007 10.835C10.4299 10.835 10.859 10.7017 11.2249 10.435L19.6182 4.36752C19.804 4.23334 19.8465 3.97252 19.7115 3.78584Z" fill="#101315"/>
<path d="M9.22112 9.75515C9.0853 9.56932 8.82612 9.52683 8.63862 9.66265L0.394438 15.6468C0.208618 15.7827 0.166938 16.0427 0.301938 16.2293C0.383618 16.3418 0.510259 16.401 0.639438 16.401C0.723618 16.401 0.809438 16.3752 0.884438 16.3218L9.12862 10.3376C9.31444 10.2018 9.35612 9.94183 9.22112 9.75515Z" fill="#101315"/>
<path d="M19.6044 15.6461L11.361 9.66191C11.1727 9.52609 10.9135 9.56773 10.7785 9.75441C10.6435 9.94109 10.6852 10.2011 10.871 10.3369L19.1143 16.3211C19.1876 16.3744 19.2735 16.4003 19.3585 16.4003C19.4877 16.4003 19.6152 16.3411 19.6968 16.2286C19.8319 16.0419 19.7902 15.7819 19.6044 15.6461Z" fill="#101315"/>
</svg>

<svg width="20" height="20" fill="none" xmlns="http://www.w3.org/2000/svg"><path d="M18.75 3.333H1.25c-.69 0-1.25.56-1.25 1.25v10.833c0 .69.56 1.25 1.25 1.25h17.5c.69 0 1.25-.56 1.25-1.25V4.583c0-.69-.56-1.25-1.25-1.25zm.417 12.083c0 .23-.187.417-.417.417H1.25a.417.417 0 01-.417-.417V4.583c0-.23.187-.417.417-.417h17.5c.23 0 .417.187.417.417v10.833z" fill="#101315"/><path d="M19.712 3.786a.416.416 0 00-.582-.093L10.736 9.76c-.44.319-1.031.32-1.472-.001L.874 3.693a.416.416 0 10-.49.675l8.39 6.067a2.08 2.08 0 002.45 0l8.394-6.067a.417.417 0 00.094-.582z" fill="#101315"/><path d="M9.221 9.755a.417.417 0 00-.582-.092L.394 15.647a.418.418 0 00.49.675l8.245-5.984a.418.418 0 00.092-.583zM19.604 15.646l-8.243-5.984a.416.416 0 10-.49.675l8.243 5.984a.416.416 0 10.49-.675z" fill="#101315"/></svg>
